;FLAVOR:Marlin
;TIME:4129
;Filament used: 3.10281m
;Layer height: 0.2
;MINX:89.544
;MINY:92.006
;MINZ:0.3
;MAXX:160.452
;MAXY:162.955
;MAXZ:11.9
;LINEARADVANCEPROCESSED
;Generated with Cura_SteamEngine 4.13.1
M140 S60
M105
M190 S60
M104 S185
M105
M109 S185
M82 ;absolute extrusion mode
G28 ;Home
G92 E0 ;Reset Extruder
G1 Z2.0 F3000 ;Move Z Axis up
G1 X5.1 Y20 Z0.28 F5000.0 ;Move to start position
G1 X5.1 Y200.0 Z0.28 F1500.0 E15 ;Draw the first line
G1 X5.4 Y200.0 Z0.28 F5000.0 ;Move to side a little
G1 X5.4 Y20 Z0.28 F1500.0 E30 ;Draw the second line
G92 E0 ;Reset Extruder
G1 E4 F300 ; Extrude 4mm of Filament
G1 Z2.0 F3000 ;Move Z Axis up
G21 ;metric values
G90 ;absolute positioning
M82 ;set extruder to absolute mode
M107 ;start with the fan off
G28 X0 Y0 ;move X/Y to min endstops
G28 Z0 ;move Z to min endstops
G1 Z15.0 F150 ;move the platform down 15mm
G92 E0 ;zero the extruded length
G1 F200 E3 ;extrude 3mm of feed stock
G92 E0 ;zero the extruded length again
G1 F150
G0 Y20 F150
M117 Printing...
G5
M900 K0.4
G92 E0
G92 E0
G1 F1500 E-5.5
;LAYER_COUNT:59
M900 K0.450000 T0 ;added by LinearAdvanceSettingPlugin
;LAYER:0
M107
G0 X101.777 Y103.168 Z0.3
;TYPE:SKIRT
G1 F1500 E0
G1 X102.459 Y102.519 E0.05693
G1 X103.013 Y102.038 E0.10129
G1 X103.856 Y101.337 E0.16758
G1 X104.351 Y100.944 E0.2058
G1 X105.275 Y100.251 E0.27564
G1 X105.721 Y99.932 E0.3088
G1 X106.088 Y99.677 E0.33582
G1 X106.544 Y99.37 E0.36906
G1 X106.687 Y99.277 E0.37937
G1 X107.269 Y98.908 E0.42104
G1 X107.429 Y98.81 E0.43239
G1 X108.224 Y98.339 E0.48826
G1 X108.359 Y98.261 E0.49769
G1 X109.071 Y97.863 E0.54701
G1 X109.518 Y97.628 E0.57755
G1 X110.675 Y97.059 E0.65551
G1 X110.848 Y96.978 E0.66706
G1 X111.566 Y96.652 E0.71474
G1 X111.849 Y96.532 E0.73333
G1 X113.146 Y96.019 E0.81767
G1 X113.367 Y95.936 E0.83194
G1 X114.52 Y95.53 E0.90586
G1 X114.711 Y95.466 E0.91804
G1 X115.208 Y95.309 E0.94955
G1 X115.711 Y95.163 E0.98122
G1 X115.838 Y95.127 E0.9892
G1 X117.031 Y94.812 E1.06381
G1 X117.638 Y94.668 E1.10154
G1 X117.8 Y94.632 E1.11157
G1 X118.412 Y94.507 E1.14934
G1 X118.732 Y94.446 E1.16904
G1 X119.486 Y94.31 E1.21537
G1 X120.028 Y94.224 E1.24855
G1 X120.232 Y94.195 E1.26101
G1 X121.251 Y94.069 E1.32309
G1 X122.058 Y93.986 E1.37215
G1 X122.193 Y93.973 E1.38035
G1 X122.862 Y93.92 E1.42093
G1 X123.524 Y93.886 E1.46101
G1 X124.85 Y93.859 E1.5412
G1 X125.532 Y93.857 E1.58244
G1 X126.138 Y93.872 E1.6191
G1 X126.773 Y93.907 E1.65755
G1 X127.54 Y93.956 E1.70402
G1 X128.19 Y94.005 E1.74344
G1 X128.787 Y94.066 E1.77973
G1 X128.978 Y94.089 E1.79136
G1 X129.868 Y94.213 E1.84569
G1 X130.207 Y94.264 E1.86642
G1 X130.773 Y94.355 E1.90109
G1 X130.965 Y94.389 E1.91288
G1 X131.762 Y94.543 E1.96196
G1 X131.944 Y94.581 E1.9732
G1 X132.89 Y94.795 E2.03185
G1 X133.694 Y94.997 E2.08198
G1 X134.261 Y95.155 E2.11757
G1 X135.361 Y95.493 E2.18715
G1 X135.533 Y95.549 E2.19809
G1 X136.34 Y95.823 E2.24962
G1 X136.641 Y95.934 E2.26902
G1 X137.889 Y96.431 E2.35025
G1 X138.108 Y96.523 E2.36461
G1 X139.328 Y97.064 E2.44531
G1 X139.511 Y97.149 E2.45751
G1 X139.977 Y97.374 E2.4888
G1 X140.51 Y97.648 E2.52504
G1 X141.568 Y98.221 E2.59779
G1 X142.13 Y98.545 E2.63701
G1 X142.278 Y98.634 E2.64746
G1 X143.008 Y99.087 E2.69941
G1 X143.741 Y99.563 E2.75225
G1 X144.21 Y99.883 E2.78659
G1 X144.364 Y99.993 E2.79803
G1 X145.231 Y100.629 E2.86305
G1 X145.96 Y101.189 E2.91863
G1 X146.364 Y101.518 E2.95014
G1 X147.387 Y102.402 E3.03189
G1 X147.877 Y102.844 E3.07179
G1 X148.448 Y103.376 E3.11898
G1 X148.805 Y103.729 E3.14934
G1 X149.049 Y103.985 E3.17072
G1 X149.789 Y104.77 E3.23596
G1 X150.275 Y105.3 E3.27944
G1 X150.688 Y105.778 E3.31763
G1 X150.928 Y106.073 E3.34063
G1 X151.503 Y106.793 E3.39634
G1 X151.827 Y107.213 E3.42842
G1 X151.951 Y107.379 E3.44095
G1 X152.608 Y108.293 E3.50901
G1 X152.721 Y108.456 E3.521
G1 X153.153 Y109.1 E3.5679
G1 X153.479 Y109.603 E3.60414
G1 X153.581 Y109.765 E3.61571
G1 X153.915 Y110.317 E3.65473
G1 X154.413 Y111.192 E3.7156
G1 X154.489 Y111.329 E3.72508
G1 X154.967 Y112.224 E3.78643
G1 X155.116 Y112.522 E3.80658
G1 X155.701 Y113.775 E3.89019
G1 X155.78 Y113.952 E3.90191
G1 X156.087 Y114.667 E3.94896
G1 X156.201 Y114.952 E3.96752
G1 X156.719 Y116.345 E4.05739
G1 X156.795 Y116.561 E4.07124
G1 X157.136 Y117.593 E4.13696
G1 X157.335 Y118.255 E4.17875
G1 X157.475 Y118.764 E4.21067
G1 X157.512 Y118.908 E4.21966
G1 X157.804 Y120.103 E4.29405
G1 X157.936 Y120.708 E4.33149
G1 X157.972 Y120.884 E4.34235
G1 X158.088 Y121.511 E4.38091
G1 X158.167 Y121.976 E4.40943
G1 X158.288 Y122.743 E4.45638
G1 X158.363 Y123.317 E4.49139
G1 X158.495 Y124.601 E4.56943
G1 X158.544 Y125.203 E4.60596
G1 X158.593 Y126.005 E4.65454
G1 X158.613 Y126.643 E4.69314
G1 X158.613 Y127.966 E4.77313
G1 X158.603 Y128.671 E4.81577
G1 X158.583 Y129.195 E4.84748
G1 X158.57 Y129.393 E4.85947
G1 X158.474 Y130.601 E4.93275
G1 X158.425 Y131.111 E4.96373
G1 X158.402 Y131.309 E4.97578
G1 X158.252 Y132.445 E5.04507
G1 X158.221 Y132.648 E5.05749
G1 X158.096 Y133.398 E5.10346
G1 X157.99 Y133.975 E5.13893
G1 X157.956 Y134.148 E5.1496
G1 X157.814 Y134.814 E5.19077
G1 X157.771 Y134.998 E5.2022
G1 X157.508 Y136.064 E5.26859
G1 X157.302 Y136.822 E5.31608
G1 X157.142 Y137.353 E5.34962
G1 X156.753 Y138.531 E5.42463
G1 X156.692 Y138.709 E5.43601
G1 X156.425 Y139.442 E5.48318
G1 X156.312 Y139.728 E5.50177
G1 X155.748 Y141.066 E5.58957
G1 X155.653 Y141.28 E5.60373
G1 X155.141 Y142.377 E5.67693
G1 X155.051 Y142.562 E5.68937
G1 X154.819 Y143.019 E5.72036
G1 X154.555 Y143.511 E5.75412
G1 X153.929 Y144.616 E5.83092
G1 X153.629 Y145.117 E5.86623
G1 X153.525 Y145.284 E5.87812
G1 X153.011 Y146.075 E5.93516
G1 X152.549 Y146.756 E5.98492
G1 X152.247 Y147.181 E6.01645
G1 X152.13 Y147.34 E6.02839
G1 X151.464 Y148.213 E6.09478
G1 X150.919 Y148.897 E6.14766
G1 X150.466 Y149.44 E6.19042
G1 X150.071 Y149.887 E6.22649
G1 X149.334 Y150.676 E6.29178
G1 X148.667 Y151.367 E6.34985
G1 X148.265 Y151.759 E6.3838
G1 X148.007 Y151.999 E6.40511
G1 X147.145 Y152.777 E6.47532
G1 X146.665 Y153.196 E6.51385
G1 X146.242 Y153.549 E6.54716
G1 X146.064 Y153.692 E6.56097
G1 X145.148 Y154.396 E6.63082
G1 X144.664 Y154.754 E6.66722
G1 X144.493 Y154.876 E6.67993
G1 X143.707 Y155.416 E6.73759
G1 X143.565 Y155.511 E6.74792
G1 X142.829 Y155.986 E6.80089
G1 X142.185 Y156.383 E6.84663
G1 X141.715 Y156.658 E6.87956
G1 X141.559 Y156.745 E6.89036
G1 X140.559 Y157.287 E6.95914
G1 X140.396 Y157.372 E6.97025
G1 X139.656 Y157.745 E7.02036
G1 X139.376 Y157.878 E7.0391
G1 X138.193 Y158.402 E7.11734
G1 X137.971 Y158.495 E7.13189
G1 X136.657 Y159.017 E7.21739
G1 X136.447 Y159.096 E7.23095
G1 X135.944 Y159.275 E7.26324
G1 X135.519 Y159.415 E7.29029
G1 X134.262 Y159.803 E7.36984
G1 X133.593 Y159.99 E7.41184
G1 X133.418 Y160.035 E7.42277
G1 X132.626 Y160.227 E7.47205
G1 X131.775 Y160.416 E7.52476
G1 X131.257 Y160.519 E7.55669
G1 X131.067 Y160.554 E7.56837
G1 X130.144 Y160.706 E7.62494
G1 X129.217 Y160.839 E7.68156
G1 X128.526 Y160.918 E7.72362
G1 X127.181 Y161.028 E7.80522
G1 X126.509 Y161.069 E7.84593
G1 X125.79 Y161.099 E7.88944
G1 X125.285 Y161.106 E7.91998
G1 X124.949 Y161.103 E7.9403
G1 X123.88 Y161.081 E8.00495
G1 X123.111 Y161.056 E8.05147
G1 X122.583 Y161.023 E8.08346
G1 X122.033 Y160.973 E8.11686
G1 X121.092 Y160.875 E8.17406
G1 X120.467 Y160.797 E8.21215
G1 X119.429 Y160.638 E8.27564
G1 X119.248 Y160.607 E8.28675
G1 X118.418 Y160.453 E8.33779
G1 X117.782 Y160.323 E8.37705
G1 X117.6 Y160.283 E8.38831
G1 X117.083 Y160.161 E8.42043
G1 X116.914 Y160.119 E8.43096
G1 X115.932 Y159.858 E8.4924
G1 X115.777 Y159.815 E8.50213
G1 X114.933 Y159.567 E8.55532
G1 X114.625 Y159.467 E8.5749
G1 X113.299 Y159.001 E8.65989
G1 X113.116 Y158.934 E8.67167
G1 X112.393 Y158.654 E8.71855
G1 X112.109 Y158.536 E8.73715
G1 X110.744 Y157.928 E8.8275
G1 X110.534 Y157.829 E8.84154
G1 X109.589 Y157.365 E8.9052
G1 X109.414 Y157.276 E8.91707
G1 X108.915 Y157.011 E8.95124
G1 X108.364 Y156.702 E8.98943
G1 X108.239 Y156.63 E8.99816
G1 X107.315 Y156.08 E9.06318
G1 X106.809 Y155.762 E9.09931
G1 X106.665 Y155.668 E9.10971
G1 X105.883 Y155.14 E9.16677
G1 X105.168 Y154.635 E9.2197
G1 X104.629 Y154.232 E9.26039
G1 X103.705 Y153.497 E9.33178
G1 X103.142 Y153.03 E9.37601
G1 X102.537 Y152.506 E9.42441
G1 X102.105 Y152.112 E9.45976
G1 X101.933 Y151.946 E9.47422
G1 X101.09 Y151.118 E9.54567
G1 X100.622 Y150.645 E9.5859
G1 X100.264 Y150.264 E9.61751
G1 X99.728 Y149.658 E9.66643
G1 X99.287 Y149.145 E9.70734
G1 X98.924 Y148.708 E9.74169
G1 X98.121 Y147.68 E9.82057
G1 X98.003 Y147.523 E9.83244
G1 X97.597 Y146.967 E9.87407
G1 X97.286 Y146.526 E9.9067
G1 X97.177 Y146.366 E9.91841
G1 X96.757 Y145.729 E9.96454
G1 X96.667 Y145.589 E9.97461
G1 X96.227 Y144.881 E10.02501
G1 X96.149 Y144.752 E10.03413
G1 X95.726 Y144.033 E10.08457
G1 X95.437 Y143.51 E10.1207
G1 X94.878 Y142.425 E10.1945
G1 X94.44 Y141.516 E10.25551
G1 X94.31 Y141.226 E10.27473
G1 X93.807 Y140.024 E10.35352
G1 X93.721 Y139.809 E10.36752
G1 X93.252 Y138.559 E10.44825
G1 X93.181 Y138.359 E10.46108
G1 X93.006 Y137.839 E10.49426
G1 X92.841 Y137.303 E10.52817
G1 X92.499 Y136.109 E10.60327
G1 X92.335 Y135.475 E10.64287
G1 X92.294 Y135.301 E10.65368
G1 X92.123 Y134.53 E10.70143
G1 X91.934 Y133.599 E10.75887
G1 X91.841 Y133.077 E10.79093
G1 X91.813 Y132.904 E10.80153
G1 X91.675 Y131.952 E10.8597
G1 X91.564 Y131.05 E10.91465
G1 X91.501 Y130.387 E10.95492
G1 X91.416 Y129.043 E11.03635
G1 X91.389 Y128.389 E11.07593
G1 X91.371 Y127.621 E11.12238
G1 X91.374 Y127.049 E11.15697
G1 X91.382 Y126.785 E11.17294
G1 X91.428 Y125.647 E11.24181
G1 X91.467 Y124.931 E11.28516
G1 X91.515 Y124.336 E11.32126
G1 X91.618 Y123.461 E11.37453
G1 X91.686 Y122.923 E11.40732
G1 X91.784 Y122.247 E11.44863
G1 X91.949 Y121.295 E11.50705
G1 X91.984 Y121.109 E11.51849
G1 X92.164 Y120.237 E11.57233
G1 X92.319 Y119.551 E11.61486
G1 X92.47 Y118.954 E11.65209
G1 X92.807 Y117.772 E11.72641
G1 X92.856 Y117.608 E11.73676
G1 X93.131 Y116.739 E11.79188
G1 X93.239 Y116.427 E11.81184
G1 X93.678 Y115.26 E11.88723
G1 X93.762 Y115.048 E11.90102
G1 X94.301 Y113.761 E11.98539
G1 X94.387 Y113.566 E11.99828
G1 X94.622 Y113.055 E12.03229
G1 X94.844 Y112.602 E12.06279
G1 X95.424 Y111.478 E12.13927
G1 X95.757 Y110.875 E12.18092
G1 X96.069 Y110.341 E12.21832
G1 X96.258 Y110.03 E12.24033
G1 X96.83 Y109.114 E12.30563
G1 X97.148 Y108.637 E12.34029
G1 X97.743 Y107.793 E12.40273
G1 X98.19 Y107.184 E12.44841
G1 X98.516 Y106.76 E12.48075
G1 X98.645 Y106.599 E12.49323
G1 X99.538 Y105.524 E12.57773
G1 X99.948 Y105.052 E12.61553
G1 X100.403 Y104.547 E12.65664
G1 X100.814 Y104.116 E12.69265
G1 X101.056 Y103.875 E12.7133
G1 X101.461 Y103.478 E12.74759
G0 F1350 X101.777 Y103.168
G0 F1500 X102.108 Y103.515
G1 X102.781 Y102.875 E12.80375
G1 X103.324 Y102.403 E12.84725
G1 X104.157 Y101.711 E12.91273
G1 X104.639 Y101.328 E12.94996
G1 X105.563 Y100.635 E13.0198
G1 X105.999 Y100.323 E13.05222
G1 X106.357 Y100.075 E13.07855
G1 X106.813 Y99.768 E13.11179
G1 X106.944 Y99.682 E13.12127
G1 X107.526 Y99.313 E13.16293
G1 X107.673 Y99.223 E13.17336
G1 X108.468 Y98.752 E13.22923
G1 X108.593 Y98.68 E13.23795
G1 X109.305 Y98.282 E13.28728
G1 X109.73 Y98.059 E13.3163
G1 X110.887 Y97.49 E13.39426
G1 X111.046 Y97.415 E13.40489
G1 X111.764 Y97.089 E13.45257
G1 X112.025 Y96.978 E13.46972
G1 X113.322 Y96.465 E13.55406
G1 X113.526 Y96.389 E13.56722
G1 X114.679 Y95.983 E13.64114
G1 X114.856 Y95.924 E13.65242
G1 X115.498 Y95.723 E13.6931
G1 X115.961 Y95.592 E13.72219
G1 X117.311 Y95.237 E13.8066
G1 X117.897 Y95.102 E13.84296
G1 X118.502 Y94.979 E13.88029
G1 X118.818 Y94.919 E13.89974
G1 X119.696 Y94.762 E13.95367
G1 X120.291 Y94.671 E13.99007
G1 X121.435 Y94.531 E14.05976
G1 X122.231 Y94.452 E14.10812
G1 X122.9 Y94.399 E14.1487
G1 X123.534 Y94.366 E14.18709
G1 X124.851 Y94.339 E14.26674
G1 X125.533 Y94.337 E14.30798
G1 X126.112 Y94.352 E14.343
G1 X126.743 Y94.386 E14.38121
G1 X127.504 Y94.434 E14.42732
G1 X128.154 Y94.483 E14.46674
G1 X128.735 Y94.543 E14.50205
G1 X128.912 Y94.565 E14.51284
G1 X129.798 Y94.688 E14.56693
G1 X130.131 Y94.738 E14.58729
G1 X130.697 Y94.829 E14.62195
G1 X130.874 Y94.86 E14.63282
G1 X131.671 Y95.014 E14.6819
G1 X131.839 Y95.049 E14.69228
G1 X132.773 Y95.26 E14.75018
G1 X133.577 Y95.462 E14.8003
G1 X134.12 Y95.614 E14.8344
G1 X135.22 Y95.952 E14.90398
G1 X135.379 Y96.004 E14.9141
G1 X136.186 Y96.278 E14.96563
G1 X136.463 Y96.38 E14.98348
G1 X137.711 Y96.877 E15.0647
G1 X137.914 Y96.962 E15.07801
G1 X139.134 Y97.503 E15.15871
G1 X139.302 Y97.581 E15.16991
G1 X139.768 Y97.806 E15.2012
G1 X140.281 Y98.07 E15.23609
G1 X141.339 Y98.643 E15.30884
G1 X141.889 Y98.96 E15.34722
G1 X142.025 Y99.042 E15.35683
G1 X142.746 Y99.49 E15.40815
G1 X143.479 Y99.966 E15.461
G1 X143.938 Y100.279 E15.4946
G1 X144.08 Y100.38 E15.50513
G1 X144.947 Y101.016 E15.57015
G1 X145.584 Y101.505 E15.61871
G1 X146.05 Y101.881 E15.65491
G1 X147.073 Y102.765 E15.73667
G1 X147.62 Y103.259 E15.78123
G1 X148.121 Y103.727 E15.82269
G1 X148.674 Y104.287 E15.87028
G1 X149.435 Y105.094 E15.93735
G1 X149.921 Y105.624 E15.98083
G1 X150.316 Y106.082 E16.0174
G1 X150.553 Y106.373 E16.04009
G1 X151.188 Y107.17 E16.10171
G1 X151.562 Y107.659 E16.13894
G1 X152.219 Y108.573 E16.207
G1 X152.323 Y108.723 E16.21804
G1 X152.75 Y109.361 E16.26446
G1 X153.076 Y109.864 E16.3007
G1 X153.17 Y110.014 E16.31141
G1 X153.504 Y110.566 E16.35042
G1 X153.586 Y110.705 E16.36018
G1 X153.996 Y111.428 E16.41044
G1 X154.543 Y112.45 E16.48053
G1 X154.681 Y112.725 E16.49913
G1 X155.266 Y113.978 E16.58275
G1 X155.339 Y114.141 E16.59355
G1 X155.646 Y114.856 E16.6406
G1 X155.751 Y115.119 E16.65772
G1 X156.269 Y116.512 E16.74759
G1 X156.339 Y116.711 E16.76034
G1 X156.68 Y117.743 E16.82606
G1 X156.875 Y118.391 E16.86698
G1 X157.011 Y118.889 E16.8982
G1 X157.046 Y119.022 E16.90651
G1 X157.338 Y120.217 E16.9809
G1 X157.467 Y120.809 E17.01753
G1 X157.5 Y120.971 E17.02753
G1 X157.63 Y121.681 E17.07117
G1 X157.693 Y122.051 E17.09387
G1 X157.812 Y122.808 E17.1402
G1 X157.885 Y123.367 E17.17429
G1 X158.016 Y124.64 E17.25167
G1 X158.074 Y125.365 E17.29565
G1 X158.114 Y126.034 E17.33618
G1 X158.133 Y126.643 E17.37302
G1 X158.133 Y127.959 E17.45259
G1 X158.123 Y128.664 E17.49523
G1 X158.103 Y129.173 E17.52603
G1 X158.092 Y129.356 E17.53711
G1 X157.996 Y130.562 E17.61027
G1 X157.947 Y131.063 E17.64071
G1 X157.926 Y131.246 E17.65184
G1 X157.776 Y132.382 E17.72113
G1 X157.748 Y132.569 E17.73256
G1 X157.624 Y133.312 E17.77811
G1 X157.518 Y133.889 E17.81359
G1 X157.486 Y134.048 E17.82339
G1 X157.344 Y134.714 E17.86457
G1 X157.305 Y134.884 E17.87512
G1 X157.045 Y135.938 E17.94076
G1 X156.839 Y136.696 E17.98825
G1 X156.687 Y137.203 E18.02026
G1 X156.298 Y138.381 E18.09527
G1 X156.241 Y138.545 E18.10577
G1 X155.974 Y139.278 E18.15294
G1 X155.87 Y139.542 E18.1701
G1 X155.306 Y140.88 E18.2579
G1 X155.218 Y141.077 E18.27094
G1 X154.706 Y142.174 E18.34415
G1 X154.623 Y142.344 E18.35558
G1 X154.32 Y142.938 E18.39591
G1 X154.079 Y143.38 E18.42635
G1 X153.512 Y144.379 E18.4958
G1 X153.218 Y144.869 E18.53036
G1 X153.122 Y145.023 E18.54133
G1 X152.614 Y145.805 E18.59772
G1 X152.152 Y146.486 E18.64748
G1 X151.857 Y146.902 E18.67831
G1 X151.749 Y147.048 E18.68929
G1 X151.008 Y148.017 E18.76305
G1 X150.55 Y148.589 E18.80736
G1 X150.097 Y149.132 E18.85012
G1 X149.72 Y149.559 E18.88456
G1 X148.988 Y150.343 E18.94942
G1 X148.321 Y151.034 E19.00749
G1 X147.937 Y151.408 E19.03991
G1 X147.685 Y151.643 E19.06074
G1 X146.83 Y152.415 E19.1304
G1 X146.35 Y152.834 E19.16892
G1 X145.936 Y153.18 E19.20155
G1 X145.771 Y153.312 E19.21433
G1 X144.857 Y154.014 E19.28401
G1 X144.379 Y154.368 E19.31998
