;FLAVOR:Marlin
;TIME:4130
;Filament used: 3.89695m
;Layer height: 0.2
;MINX:78.901
;MINY:81.378
;MINZ:0.3
;MAXX:171.102
;MAXY:173.539
;MAXZ:92.612
;LINEARADVANCEPROCESSED
;Generated with Cura_SteamEngine 4.13.1
M140 S60
M105
M190 S60
M104 S185
M105
M109 S185
M82 ;absolute extrusion mode
G28 ;Home
G92 E0 ;Reset Extruder
G1 Z2.0 F3000 ;Move Z Axis up
G1 X5.1 Y20 Z0.28 F5000.0 ;Move to start position
G1 X5.1 Y200.0 Z0.28 F1500.0 E15 ;Draw the first line
G1 X5.4 Y200.0 Z0.28 F5000.0 ;Move to side a little
G1 X5.4 Y20 Z0.28 F1500.0 E30 ;Draw the second line
G92 E0 ;Reset Extruder
G1 E4 F300 ; Extrude 4mm of Filament
G1 Z2.0 F3000 ;Move Z Axis up
G21 ;metric values
G90 ;absolute positioning
M82 ;set extruder to absolute mode
M107 ;start with the fan off
G28 X0 Y0 ;move X/Y to min endstops
G28 Z0 ;move Z to min endstops
G1 Z15.0 F150 ;move the platform down 15mm
G92 E0 ;zero the extruded length
G1 F200 E3 ;extrude 3mm of feed stock
G92 E0 ;zero the extruded length again
G1 F150
G0 Y20 F150
M117 Printing...
G5
M900 K0.4
G92 E0
G92 E0
G1 F1500 E-5.5
;LAYER_COUNT:462
M900 K0.450000 T0 ;added by LinearAdvanceSettingPlugin
;LAYER:0
M107
G0 X102.85 Y105.584 Z0.3
;TYPE:SKIRT
G1 F1500 E0
G1 X103.446 Y105.005 E0.05024
G1 X103.535 Y104.921 E0.05764
G1 X104.323 Y104.201 E0.12219
G1 X104.83 Y103.75 E0.16322
G1 X105.102 Y103.521 E0.18472
G1 X105.867 Y102.917 E0.24365
G1 X106.439 Y102.479 E0.28722
G1 X106.98 Y102.076 E0.32801
G1 X107.275 Y101.869 E0.3498
G1 X107.989 Y101.4 E0.40145
G1 X108.696 Y100.95 E0.45213
G1 X109.283 Y100.588 E0.49383
G1 X109.989 Y100.193 E0.54275
G1 X110.943 Y99.695 E0.60782
G1 X111.63 Y99.348 E0.65436
G1 X111.962 Y99.193 E0.67651
G1 X112.819 Y98.823 E0.73296
G1 X113.561 Y98.516 E0.78151
G1 X114.155 Y98.28 E0.82016
G1 X114.49 Y98.158 E0.84172
G1 X115.35 Y97.873 E0.8965
G1 X116.119 Y97.631 E0.94525
G1 X116.719 Y97.451 E0.98312
G1 X117.07 Y97.357 E1.0051
G1 X117.968 Y97.145 E1.06089
G1 X118.698 Y96.984 E1.10609
G1 X119.409 Y96.837 E1.14999
G1 X119.761 Y96.775 E1.1716
G1 X120.566 Y96.657 E1.2208
G1 X121.438 Y96.543 E1.27398
G1 X122.062 Y96.47 E1.31196
G1 X122.416 Y96.439 E1.33345
G1 X123.379 Y96.383 E1.39178
G1 X124.091 Y96.353 E1.43487
G1 X124.803 Y96.332 E1.47794
G1 X125.157 Y96.331 E1.49935
G1 X126.012 Y96.356 E1.55107
G1 X126.802 Y96.39 E1.59888
G1 X127.469 Y96.428 E1.63928
G1 X127.831 Y96.459 E1.66125
G1 X128.796 Y96.572 E1.72
G1 X129.56 Y96.675 E1.76661
G1 X130.214 Y96.771 E1.80658
G1 X130.561 Y96.832 E1.82788
G1 X131.395 Y97.004 E1.87937
G1 X132.182 Y97.178 E1.92811
G1 X132.855 Y97.338 E1.96994
G1 X133.183 Y97.426 E1.99047
G1 X134.044 Y97.682 E2.04479
G1 X134.806 Y97.923 E2.09311
G1 X135.477 Y98.145 E2.13585
G1 X136.217 Y98.425 E2.18369
G1 X137.244 Y98.849 E2.25088
G1 X137.991 Y99.172 E2.30009
G1 X138.295 Y99.314 E2.32037
G1 X139.036 Y99.685 E2.37048
G1 X139.787 Y100.076 E2.42168
G1 X140.389 Y100.401 E2.46305
G1 X140.693 Y100.577 E2.48429
G1 X141.449 Y101.042 E2.53795
G1 X142.032 Y101.413 E2.57974
G1 X142.674 Y101.835 E2.62619
G1 X142.967 Y102.039 E2.64778
G1 X143.699 Y102.583 E2.70293
G1 X144.322 Y103.062 E2.75045
G1 X144.846 Y103.475 E2.79079
G1 X145.464 Y104.006 E2.84006
G1 X146.3 Y104.771 E2.90858
G1 X146.855 Y105.293 E2.95465
G1 X147.11 Y105.547 E2.97641
G1 X147.734 Y106.209 E3.03142
G1 X148.269 Y106.794 E3.07936
G1 X148.715 Y107.296 E3.11996
G1 X148.935 Y107.558 E3.14065
G1 X149.487 Y108.254 E3.19436
G1 X149.958 Y108.869 E3.2412
G1 X150.392 Y109.45 E3.28505
G1 X150.852 Y110.126 E3.33449
G1 X151.473 Y111.097 E3.40419
G1 X151.826 Y111.668 E3.44478
G1 X152.004 Y111.975 E3.46624
G1 X152.453 Y112.804 E3.52324
G1 X152.794 Y113.461 E3.568
G1 X153.13 Y114.128 E3.61316
G1 X153.287 Y114.464 E3.63559
G1 X153.615 Y115.226 E3.68575
G1 X153.924 Y115.973 E3.73463
G1 X154.172 Y116.593 E3.77501
G1 X154.301 Y116.947 E3.79779
G1 X154.575 Y117.778 E3.8507
G1 X154.81 Y118.524 E3.89799
G1 X155.019 Y119.221 E3.94199
G1 X155.111 Y119.564 E3.96347
G1 X155.296 Y120.343 E4.01188
G1 X155.481 Y121.178 E4.0636
G1 X155.614 Y121.82 E4.10324
G1 X155.676 Y122.171 E4.12479
G1 X155.812 Y123.096 E4.18133
G1 X155.911 Y123.851 E4.22737
G1 X155.99 Y124.517 E4.26792
G1 X156.023 Y124.889 E4.2905
G1 X156.074 Y125.794 E4.34531
G1 X156.105 Y126.529 E4.3898
G1 X156.127 Y127.275 E4.43492
G1 X156.127 Y127.635 E4.45669
G1 X156.103 Y128.454 E4.50624
G1 X156.07 Y129.225 E4.5529
G1 X156.031 Y129.919 E4.59493
G1 X156 Y130.281 E4.6169
G1 X155.891 Y131.221 E4.67412
G1 X155.793 Y131.962 E4.71931
G1 X155.691 Y132.661 E4.76203
G1 X155.629 Y133.014 E4.7837
G1 X155.452 Y133.871 E4.83661
G1 X155.293 Y134.586 E4.8809
G1 X155.124 Y135.302 E4.92539
G1 X155.032 Y135.648 E4.94704
G1 X154.787 Y136.468 E4.99878
G1 X154.541 Y137.244 E5.04801
G1 X154.31 Y137.94 E5.09235
G1 X154.189 Y138.273 E5.11377
G1 X153.893 Y139.017 E5.16219
G1 X153.559 Y139.823 E5.21495
G1 X153.304 Y140.414 E5.25387
G1 X153.156 Y140.731 E5.27502
G1 X152.744 Y141.554 E5.33067
G1 X152.392 Y142.231 E5.37681
G1 X152.08 Y142.811 E5.41663
G1 X151.898 Y143.128 E5.43874
G1 X151.408 Y143.92 E5.49505
G1 X150.972 Y144.605 E5.54415
G1 X150.617 Y145.145 E5.58323
G1 X150.408 Y145.443 E5.60523
G1 X149.925 Y146.09 E5.65406
G1 X149.412 Y146.759 E5.70503
G1 X148.97 Y147.319 E5.74817
G1 X148.739 Y147.595 E5.76993
G1 X148.21 Y148.189 E5.81803
G1 X147.647 Y148.804 E5.86845
G1 X147.151 Y149.331 E5.91221
G1 X146.554 Y149.912 E5.96258
G1 X146.466 Y149.995 E5.96989
G1 X145.698 Y150.698 E6.03285
G1 X145.171 Y151.167 E6.07551
G1 X144.9 Y151.394 E6.09688
G1 X144.184 Y151.96 E6.15207
G1 X143.599 Y152.409 E6.19666
G1 X143.024 Y152.838 E6.24004
G1 X142.725 Y153.048 E6.26213
G1 X142.011 Y153.517 E6.31379
G1 X141.317 Y153.959 E6.36354
G1 X140.719 Y154.328 E6.40603
G1 X140.011 Y154.724 E6.45508
G1 X139.057 Y155.222 E6.52015
G1 X138.37 Y155.569 E6.56669
G1 X138.038 Y155.724 E6.58885
G1 X137.181 Y156.094 E6.64529
G1 X136.439 Y156.401 E6.69385
G1 X135.845 Y156.637 E6.73249
G1 X135.512 Y156.758 E6.75392
G1 X134.652 Y157.043 E6.8087
G1 X133.881 Y157.286 E6.85758
G1 X133.281 Y157.466 E6.89546
G1 X132.934 Y157.559 E6.91718
G1 X132.037 Y157.771 E6.97291
G1 X131.277 Y157.939 E7.01998
G1 X130.611 Y158.077 E7.0611
G1 X130.252 Y158.141 E7.08315
G1 X129.38 Y158.268 E7.13644
G1 X128.608 Y158.369 E7.18352
G1 X127.901 Y158.451 E7.22655
G1 X127.552 Y158.481 E7.24773
G1 X126.671 Y158.532 E7.30109
G1 X125.909 Y158.564 E7.34721
G1 X125.197 Y158.585 E7.39028
G1 X124.843 Y158.586 E7.41169
G1 X123.988 Y158.561 E7.46341
G1 X123.192 Y158.527 E7.51158
G1 X122.52 Y158.488 E7.55229
G1 X122.168 Y158.457 E7.57365
G1 X121.22 Y158.347 E7.63136
G1 X120.435 Y158.243 E7.67924
G1 X119.806 Y158.151 E7.71768
G1 X119.453 Y158.089 E7.73935
G1 X118.58 Y157.908 E7.79326
G1 X117.758 Y157.726 E7.84417
G1 X117.139 Y157.578 E7.88265
G1 X116.818 Y157.492 E7.90275
G1 X115.964 Y157.238 E7.95662
G1 X115.194 Y156.994 E8.00546
G1 X114.523 Y156.772 E8.0482
G1 X113.758 Y156.481 E8.09769
G1 X112.757 Y156.068 E8.16317
G1 X112.006 Y155.743 E8.21265
G1 X111.703 Y155.602 E8.23286
G1 X110.948 Y155.224 E8.28391
G1 X110.213 Y154.841 E8.33403
G1 X109.609 Y154.515 E8.37553
G1 X109.303 Y154.338 E8.3969
G1 X108.551 Y153.875 E8.4503
G1 X107.968 Y153.504 E8.49209
G1 X107.326 Y153.082 E8.53854
G1 X107.033 Y152.878 E8.56013
G1 X106.301 Y152.334 E8.61528
G1 X105.666 Y151.846 E8.6637
G1 X105.103 Y151.4 E8.70713
G1 X104.501 Y150.879 E8.75527
G1 X103.701 Y150.147 E8.82084
G1 X103.144 Y149.623 E8.86708
G1 X102.889 Y149.368 E8.88889
G1 X102.271 Y148.714 E8.94329
G1 X101.724 Y148.116 E8.9923
G1 X101.28 Y147.615 E9.03278
G1 X101.063 Y147.356 E9.05321
G1 X100.51 Y146.658 E9.10706
G1 X100.04 Y146.046 E9.15372
G1 X99.605 Y145.463 E9.1977
G1 X99.137 Y144.774 E9.24806
G1 X98.518 Y143.805 E9.31759
G1 X98.163 Y143.231 E9.3584
G1 X97.982 Y142.919 E9.38021
G1 X97.538 Y142.096 E9.43675
G1 X97.171 Y141.39 E9.48487
G1 X96.873 Y140.796 E9.52505
G1 X96.723 Y140.474 E9.54653
G1 X96.367 Y139.649 E9.60086
G1 X96.085 Y138.967 E9.64549
G1 X95.827 Y138.321 E9.68755
G1 X95.698 Y137.966 E9.71039
G1 X95.412 Y137.1 E9.76553
G1 X95.182 Y136.365 E9.8121
G1 X94.983 Y135.7 E9.85407
G1 X94.891 Y135.357 E9.87555
G1 X94.689 Y134.502 E9.92867
G1 X94.529 Y133.784 E9.97315
G1 X94.382 Y133.075 E10.01693
G1 X94.32 Y132.725 E10.03843
G1 X94.188 Y131.827 E10.09331
G1 X94.085 Y131.03 E10.1419
G1 X94.009 Y130.378 E10.18159
G1 X93.978 Y130.024 E10.20308
G1 X93.925 Y129.108 E10.25856
G1 X93.894 Y128.368 E10.30335
G1 X93.873 Y127.639 E10.34744
G1 X93.873 Y127.278 E10.36927
G1 X93.899 Y126.409 E10.42184
G1 X93.932 Y125.658 E10.4673
G1 X93.969 Y124.992 E10.50763
G1 X94 Y124.621 E10.53014
G1 X94.099 Y123.768 E10.58207
G1 X94.224 Y122.832 E10.63916
G1 X94.309 Y122.254 E10.67449
G1 X94.37 Y121.906 E10.69585
G1 X94.55 Y121.035 E10.74963
G1 X94.724 Y120.258 E10.79778
G1 X94.875 Y119.622 E10.83731
G1 X94.965 Y119.283 E10.85851
G1 X95.238 Y118.372 E10.91602
G1 X95.468 Y117.645 E10.96213
G1 X95.683 Y116.997 E11.00341
G1 X95.804 Y116.664 E11.02483
G1 X96.133 Y115.838 E11.0786
G1 X96.442 Y115.093 E11.12736
G1 X96.697 Y114.501 E11.16634
G1 X96.846 Y114.181 E11.18768
G1 X97.254 Y113.367 E11.24274
G1 X97.616 Y112.672 E11.29012
G1 X97.917 Y112.112 E11.32857
G1 X98.1 Y111.794 E11.35075
G1 X98.6 Y110.983 E11.40836
G1 X99.028 Y110.312 E11.45649
G1 X99.383 Y109.772 E11.49556
G1 X99.595 Y109.47 E11.51787
G1 X100.124 Y108.762 E11.57131
G1 X100.589 Y108.157 E11.61745
G1 X101.028 Y107.6 E11.66034
G1 X101.267 Y107.315 E11.68283
G1 X101.803 Y106.713 E11.73157
G1 X102.381 Y106.082 E11.78331
G1 X102.547 Y105.906 E11.79794
G0 F1350 X102.85 Y105.584
G0 F1500 X103.2 Y105.913
G1 X103.777 Y105.352 E11.8466
G1 X104.642 Y104.559 E11.91756
G1 X105.149 Y104.108 E11.95859
G1 X105.4 Y103.898 E11.97838
G1 X106.159 Y103.298 E12.03688
G1 X106.726 Y102.864 E12.08005
G1 X107.267 Y102.461 E12.12085
G1 X107.539 Y102.27 E12.14094
G1 X108.247 Y101.805 E12.19216
G1 X108.948 Y101.358 E12.24243
G1 X109.535 Y100.996 E12.28413
G1 X110.219 Y100.614 E12.33151
G1 X111.165 Y100.12 E12.39604
G1 X111.846 Y99.776 E12.44217
G1 X112.152 Y99.633 E12.46259
G1 X113.003 Y99.266 E12.51863
G1 X113.738 Y98.962 E12.56673
G1 X114.332 Y98.726 E12.60538
G1 X114.642 Y98.613 E12.62533
G1 X115.494 Y98.331 E12.67959
G1 X116.257 Y98.091 E12.72796
G1 X116.857 Y97.911 E12.76584
G1 X117.18 Y97.825 E12.78605
G1 X118.072 Y97.614 E12.84147
G1 X118.795 Y97.454 E12.88625
G1 X119.506 Y97.307 E12.93015
G1 X119.831 Y97.25 E12.9501
G1 X120.629 Y97.133 E12.99887
G1 X121.493 Y97.02 E13.05156
G1 X122.117 Y96.947 E13.08955
G1 X122.444 Y96.918 E13.1094
G1 X123.399 Y96.862 E13.16724
G1 X124.105 Y96.832 E13.20997
G1 X124.817 Y96.811 E13.25304
G1 X125.144 Y96.811 E13.27281
G1 X125.991 Y96.835 E13.32405
G1 X126.774 Y96.869 E13.37144
G1 X127.441 Y96.907 E13.41184
G1 X127.776 Y96.936 E13.43217
G1 X128.732 Y97.048 E13.49037
G1 X129.491 Y97.15 E13.53668
G1 X130.145 Y97.246 E13.57665
G1 X130.465 Y97.302 E13.59629
G1 X131.291 Y97.472 E13.64728
G1 X132.071 Y97.645 E13.69559
G1 X132.744 Y97.805 E13.73742
G1 X133.047 Y97.886 E13.75639
G1 X133.899 Y98.14 E13.81014
G1 X134.656 Y98.378 E13.85813
G1 X135.327 Y98.6 E13.90086
G1 X136.042 Y98.872 E13.94712
G1 X137.148 Y99.33 E14.0195
G1 X137.801 Y99.613 E14.06254
G1 X138.081 Y99.743 E14.0812
G1 X138.815 Y100.111 E14.13085
G1 X139.559 Y100.499 E14.18159
G1 X140.161 Y100.824 E14.22296
G1 X140.442 Y100.986 E14.24257
G1 X141.191 Y101.447 E14.29575
G1 X141.843 Y101.863 E14.34251
G1 X142.411 Y102.236 E14.3836
G1 X142.681 Y102.424 E14.4035
G1 X143.407 Y102.964 E14.45821
G1 X144.025 Y103.439 E14.50534
G1 X144.549 Y103.852 E14.54568
G1 X145.147 Y104.366 E14.59336
G1 X146.03 Y105.175 E14.66578
G1 X146.526 Y105.642 E14.70697
G1 X146.761 Y105.877 E14.72707
G1 X147.38 Y106.533 E14.7816
G1 X147.91 Y107.113 E14.82911
G1 X148.356 Y107.615 E14.86972
G1 X148.559 Y107.857 E14.88881
G1 X149.106 Y108.546 E14.94201
G1 X149.574 Y109.156 E14.9885
G1 X150.008 Y109.737 E15.03235
G1 X150.452 Y110.391 E15.08015
G1 X151.018 Y111.275 E15.14362
G1 X151.417 Y111.92 E15.18948
G1 X151.582 Y112.204 E15.20934
G1 X152.077 Y113.121 E15.27235
G1 X152.365 Y113.677 E15.31021
G1 X152.701 Y114.344 E15.35537
G1 X152.846 Y114.654 E15.37607
G1 X153.171 Y115.41 E15.42582
G1 X153.478 Y116.152 E15.47438
G1 X153.726 Y116.772 E15.51476
G1 X153.845 Y117.098 E15.53574
G1 X154.117 Y117.922 E15.58821
G1 X154.35 Y118.662 E15.63512
G1 X154.559 Y119.359 E15.67912
G1 X154.644 Y119.676 E15.69897
G1 X154.827 Y120.448 E15.74694
G1 X155.011 Y121.276 E15.79823
G1 X155.144 Y121.918 E15.83787
G1 X155.201 Y122.241 E15.8577
G1 X155.336 Y123.159 E15.91381
G1 X155.434 Y123.907 E15.95943
G1 X155.513 Y124.573 E15.99998
G1 X155.543 Y124.917 E16.02086
G1 X155.595 Y125.815 E16.07525
G1 X155.626 Y126.543 E16.11931
G1 X155.648 Y127.289 E16.16444
G1 X155.648 Y127.622 E16.18457
G1 X155.624 Y128.434 E16.23369
G1 X155.591 Y129.198 E16.27993
G1 X155.552 Y129.892 E16.32196
G1 X155.523 Y130.226 E16.34223
G1 X155.415 Y131.159 E16.39903
G1 X155.318 Y131.893 E16.4438
G1 X155.216 Y132.592 E16.48651
G1 X155.159 Y132.917 E16.50646
G1 X154.984 Y133.767 E16.55894
G1 X154.826 Y134.476 E16.60286
G1 X154.657 Y135.192 E16.64734
G1 X154.572 Y135.511 E16.6673
G1 X154.329 Y136.324 E16.71861
G1 X154.086 Y137.093 E16.76738
G1 X153.855 Y137.789 E16.81172
G1 X153.743 Y138.096 E16.83148
G1 X153.45 Y138.834 E16.87949
G1 X153.118 Y139.633 E16.93181
G1 X152.863 Y140.224 E16.97073
G1 X152.727 Y140.516 E16.99021
G1 X152.318 Y141.333 E17.04546
G1 X151.969 Y142.004 E17.09119
G1 X151.657 Y142.584 E17.13101
G1 X151.489 Y142.876 E17.15138
G1 X151.003 Y143.662 E17.20726
G1 X150.571 Y144.341 E17.25592
G1 X150.216 Y144.881 E17.295
G1 X150.023 Y145.156 E17.31531
G1 X149.544 Y145.798 E17.36375
G1 X149.035 Y146.462 E17.41434
G1 X148.593 Y147.022 E17.45748
G1 X148.38 Y147.276 E17.47752
G1 X147.856 Y147.865 E17.52519
G1 X147.297 Y148.475 E17.57522
G1 X146.801 Y149.002 E17.61898
G1 X146.223 Y149.565 E17.66777
G1 X145.44 Y150.284 E17.73205
G1 X144.852 Y150.808 E17.77967
G1 X144.602 Y151.018 E17.79941
G1 X143.892 Y151.58 E17.85417
G1 X143.312 Y152.025 E17.89837
G1 X142.737 Y152.454 E17.94175
G1 X142.461 Y152.647 E17.96211
G1 X141.753 Y153.112 E18.01333
G1 X141.065 Y153.551 E18.06268
G1 X140.467 Y153.92 E18.10517
G1 X139.781 Y154.303 E18.15268
G1 X138.835 Y154.797 E18.21721
G1 X138.154 Y155.141 E18.26334
G1 X137.848 Y155.284 E18.28377
G1 X136.997 Y155.651 E18.3398
G1 X136.262 Y155.955 E18.3879
G1 X135.668 Y156.191 E18.42655
G1 X135.361 Y156.303 E18.44631
G1 X134.508 Y156.585 E18.50063
G1 X133.743 Y156.826 E18.54913
G1 X133.143 Y157.006 E18.58701
G1 X132.823 Y157.092 E18.60704
G1 X131.933 Y157.303 E18.66235
G1 X131.18 Y157.469 E18.70898
G1 X130.514 Y157.607 E18.7501
G1 X130.182 Y157.666 E18.77049
G1 X129.317 Y157.792 E18.82335
G1 X128.553 Y157.892 E18.86994
G1 X127.846 Y157.974 E18.91297
G1 X127.524 Y158.002 E18.93252
G1 X126.65 Y158.053 E18.98546
G1 X125.895 Y158.085 E19.03115
G1 X125.183 Y158.106 E19.07422
G1 X124.856 Y158.106 E19.09399
G1 X124.009 Y158.082 E19.14523
G1 X123.22 Y158.047 E19.19299
G1 X122.548 Y158.008 E19.23369
G1 X122.223 Y157.98 E19.25341
G1 X121.283 Y157.871 E19.31063
G1 X120.504 Y157.768 E19.35815
G1 X119.875 Y157.676 E19.39658
G1 X119.55 Y157.619 E19.41654
G1 X118.683 Y157.44 E19.47007
G1 X117.87 Y157.259 E19.52043
G1 X117.251 Y157.111 E19.55891
G1 X116.955 Y157.032 E19.57744
G1 X116.108 Y156.78 E19.63087
G1 X115.344 Y156.539 E19.67931
G1 X114.673 Y156.317 E19.72205
G1 X113.934 Y156.035 E19.76988
G1 X112.94 Y155.625 E19.83489
G1 X112.197 Y155.303 E19.88386
G1 X111.917 Y155.173 E19.90252
G1 X111.169 Y154.798 E19.95312
G1 X110.441 Y154.419 E20.00275
